src/assets/icons/filter-icon.svg

<svg viewBox="0 0 100 100" xmlns="http://www.w3.org/2000/svg"><path d="m69.5 47.7074829v-17.7074829c0-.8284271-.6715729-1.5-1.5-1.5s-1.5.6715729-1.5 1.5v17.7076503c-2.3053278.653649-4 2.7755889-4 5.2923497 0 2.5124315 1.6914952 4.6382847 4 5.2925171v11.7074829c0 .8284271.6715729 1.5 1.5 1.5s1.5-.6715729 1.5-1.5v-11.7076503c2.3053278-.653649 4-2.7755889 4-5.2923497 0-2.5124315-1.6914952-4.6382847-4-5.2925171zm-18-15v-2.7074829c0-.8284271-.6715729-1.5-1.5-1.5s-1.5.6715729-1.5 1.5v2.7076503c-2.3053278.653649-4 2.7755889-4 5.2923497 0 2.5124315 1.6914952 4.6382847 4 5.2925171v26.7074829c0 .8284271.6715729 1.5 1.5 1.5s1.5-.6715729 1.5-1.5v-26.7076503c2.3053278-.653649 4-2.7755889 4-5.2923497 0-2.5124315-1.6914952-4.6382847-4-5.2925171zm-18 24v-26.7074829c0-.8284271-.6715729-1.5-1.5-1.5s-1.5.6715729-1.5 1.5v26.7076503c-2.3053278.653649-4 2.7755889-4 5.2923497 0 2.5124315 1.6914952 4.6382847 4 5.2925171v2.7074829c0 .8284271.6715729 1.5 1.5 1.5s1.5-.6715729 1.5-1.5v-2.7076503c2.3053278-.653649 4-2.7755889 4-5.2923497 0-2.5124315-1.6914952-4.6382847-4-5.2925171z" transform="matrix(0 1 -1 0 100 0)"/></svg>

<svg xmlns="http://www.w3.org/2000/svg" xmlns:xlink="http://www.w3.org/1999/xlink" viewBox="0 0 100 100" version="1.1" x="0px" y="0px"><title>Levers 8.3</title><desc>Created with Sketch.</desc><g stroke="none" stroke-width="1" fill="none" fill-rule="evenodd"><g fill-rule="nonzero" fill="#000000"><path d="M69.5,47.7074829 L69.5,30 C69.5,29.1715729 68.8284271,28.5 68,28.5 C67.1715729,28.5 66.5,29.1715729 66.5,30 L66.5,47.7076503 C64.1946722,48.3612993 62.5,50.4832392 62.5,53 C62.5,55.5124315 64.1914952,57.6382847 66.5,58.2925171 L66.5,70 C66.5,70.8284271 67.1715729,71.5 68,71.5 C68.8284271,71.5 69.5,70.8284271 69.5,70 L69.5,58.2923497 C71.8053278,57.6387007 73.5,55.5167608 73.5,53 C73.5,50.4875685 71.8085048,48.3617153 69.5,47.7074829 L69.5,47.7074829 Z M51.5,32.7074829 L51.5,30 C51.5,29.1715729 50.8284271,28.5 50,28.5 C49.1715729,28.5 48.5,29.1715729 48.5,30 L48.5,32.7076503 C46.1946722,33.3612993 44.5,35.4832392 44.5,38 C44.5,40.5124315 46.1914952,42.6382847 48.5,43.2925171 L48.5,70 C48.5,70.8284271 49.1715729,71.5 50,71.5 C50.8284271,71.5 51.5,70.8284271 51.5,70 L51.5,43.2923497 C53.8053278,42.6387007 55.5,40.5167608 55.5,38 C55.5,35.4875685 53.8085048,33.3617153 51.5,32.7074829 L51.5,32.7074829 Z M33.5,56.7074829 L33.5,30 C33.5,29.1715729 32.8284271,28.5 32,28.5 C31.1715729,28.5 30.5,29.1715729 30.5,30 L30.5,56.7076503 C28.1946722,57.3612993 26.5,59.4832392 26.5,62 C26.5,64.5124315 28.1914952,66.6382847 30.5,67.2925171 L30.5,70 C30.5,70.8284271 31.1715729,71.5 32,71.5 C32.8284271,71.5 33.5,70.8284271 33.5,70 L33.5,67.2923497 C35.8053278,66.6387007 37.5,64.5167608 37.5,62 C37.5,59.4875685 35.8085048,57.3617153 33.5,56.7074829 L33.5,56.7074829 Z" transform="translate(50.000000, 50.000000) rotate(90.000000) translate(-50.000000, -50.000000) "></path></g></g></svg>
